assets/MarketChannelLogos/SPLENDIA.svg

<svg xmlns="http://www.w3.org/2000/svg" xml:space="preserve" style="enable-background:new 0 0 595.3 595.3" viewBox="0 0 595.3 595.3"><path d="M297.6 595.3C133.3 595.3 0 462 0 297.6 0 133.3 133.3 0 297.6 0 462 0 595.3 133.3 595.3 297.6c0 164.4-133.3 297.7-297.7 297.7" style="fill:#fff"/><path d="M479.9 135c0-12.2-3.9-18.5-17.6-18.2-54.1.6-108.4.3-162.5.3v-.9H137.3c-13.4 0-22.1 2.7-22.1 18.8.3 107.8.3 216 0 323.8 0 14.6 6 20.3 20.6 20.3 107.8-.3 215.4-.3 323.2 0 14.3 0 21.2-4.8 21.2-20-.6-108.1-.3-216-.3-324.1m-311-4.5h276.9c.6 1.5.9 2.7 1.5 4.2-10.2 4.5-20 9.3-30.2 13.7-32.3 14-64.8 27.8-97.4 41.8-7.5 3.3-14.9 6.9-23 3.6-43.3-18.8-86.6-37.9-129.9-56.8.9-2.3 1.5-4.4 2.1-6.5zm-30.2 3c46.9 22.7 94.1 45.4 141 68.4 7.2 3.6 6.6 8.7 1.2 13.7-21.5 20.3-43 40.3-64.8 60.3-4.5 4.2-9.3 5.4-12.5-.9-23.3-45.7-46.6-91.7-69.6-137.4 1.8-1.1 3.2-2.6 4.7-4.1M134 446.3c-1.8-.6-3.3-1.2-5.1-1.8V157.2c14.3 14.9 17.9 31.4 25.1 45.4 13.4 26.3 25.4 53.2 37.9 79.8 3 6.6 6.6 13.1 3.6 20.6-20.6 47.4-41.2 95.2-61.5 143.3m266.1 19.4c-79.5.3-158.6.3-238.1.3-25.1 0-26-1.2-16.1-23.3 17.6-39.4 35.8-78.6 53.5-117.7 4.5-9.9 9-19.1 22.1-10.2 70.2 47.5 140.7 95.3 210.9 143.1.9.6 1.5 2.4 3 5.4-12.3 4.2-23.9 2.1-35.3 2.4m-59.7-85.5c-34.4-23.6-68.4-48.4-103.6-70.8-17.6-11.4-16.7-19.4-1.8-32 18.8-15.8 36.4-32.9 54.1-49.9 8.7-8.4 14.9-9 22.1 2.1 47.2 72.6 94.4 144.9 141.9 217.2.9 1.5.9 3.9 2.1 11.9-41.1-28.3-78.1-53.4-114.8-78.5m125.4 52.3c0 1.2-.9 2.7-3.6 10.2-16.4-26-30.2-48.1-44.2-70.5-31.4-49.3-62.1-98.6-94.1-147.3-8.7-13.1-6.9-19.7 7.5-26 39.4-17.6 78.6-36.1 117.7-54.7 11.4-5.4 17.6-4.5 17.6 10.2-.6 92.9-.6 185.5-.9 278.1" style="fill:#0eb6d8"/></svg>

<?xml version="1.0" encoding="utf-8"?>
<!-- Generator: Adobe Illustrator 26.3.1, SVG Export Plug-In . SVG Version: 6.00 Build 0)  -->
<svg version="1.1" id="Layer_1" xmlns="http://www.w3.org/2000/svg" xmlns:xlink="http://www.w3.org/1999/xlink" x="0px" y="0px"
	 viewBox="0 0 595.3 595.3" style="enable-background:new 0 0 595.3 595.3;" xml:space="preserve">
<style type="text/css">
	.st0{fill:#FFFFFF;}
	.st1{fill:#0EB6D8;}
</style>
<path class="st0" d="M297.6,595.3L297.6,595.3C133.3,595.3,0,462,0,297.6l0,0C0,133.3,133.3,0,297.6,0l0,0
	C462,0,595.3,133.3,595.3,297.6l0,0C595.3,462,462,595.3,297.6,595.3z"/>
<path class="st1" d="M479.9,135c0-12.2-3.9-18.5-17.6-18.2c-54.1,0.6-108.4,0.3-162.5,0.3c0-0.3,0-0.6,0-0.9
	c-54.1,0-108.4,0-162.5,0c-13.4,0-22.1,2.7-22.1,18.8c0.3,107.8,0.3,216,0,323.8c0,14.6,6,20.3,20.6,20.3
	c107.8-0.3,215.4-0.3,323.2,0c14.3,0,21.2-4.8,21.2-20C479.6,351,479.9,243.1,479.9,135z M168.9,130.5c92.3,0,184.6,0,276.9,0
	c0.6,1.5,0.9,2.7,1.5,4.2c-10.2,4.5-20,9.3-30.2,13.7c-32.3,14-64.8,27.8-97.4,41.8c-7.5,3.3-14.9,6.9-23,3.6
	c-43.3-18.8-86.6-37.9-129.9-56.8C167.7,134.7,168.3,132.6,168.9,130.5z M138.7,133.5c46.9,22.7,94.1,45.4,141,68.4
	c7.2,3.6,6.6,8.7,1.2,13.7c-21.5,20.3-43,40.3-64.8,60.3c-4.5,4.2-9.3,5.4-12.5-0.9c-23.3-45.7-46.6-91.7-69.6-137.4
	C135.8,136.5,137.2,135,138.7,133.5z M134,446.3c-1.8-0.6-3.3-1.2-5.1-1.8c0-94.4,0-188.8,0-287.3c14.3,14.9,17.9,31.4,25.1,45.4
	c13.4,26.3,25.4,53.2,37.9,79.8c3,6.6,6.6,13.1,3.6,20.6C174.9,350.4,154.3,398.2,134,446.3z M400.1,465.7
	C320.6,466,241.5,466,162,466c-25.1,0-26-1.2-16.1-23.3c17.6-39.4,35.8-78.6,53.5-117.7c4.5-9.9,9-19.1,22.1-10.2
	c70.2,47.5,140.7,95.3,210.9,143.1c0.9,0.6,1.5,2.4,3,5.4C423.1,467.5,411.5,465.4,400.1,465.7z M340.4,380.2
	c-34.4-23.6-68.4-48.4-103.6-70.8c-17.6-11.4-16.7-19.4-1.8-32c18.8-15.8,36.4-32.9,54.1-49.9c8.7-8.4,14.9-9,22.1,2.1
	c47.2,72.6,94.4,144.9,141.9,217.2c0.9,1.5,0.9,3.9,2.1,11.9C414.1,430.4,377.1,405.3,340.4,380.2z M465.8,432.5
	c0,1.2-0.9,2.7-3.6,10.2c-16.4-26-30.2-48.1-44.2-70.5c-31.4-49.3-62.1-98.6-94.1-147.3c-8.7-13.1-6.9-19.7,7.5-26
	c39.4-17.6,78.6-36.1,117.7-54.7c11.4-5.4,17.6-4.5,17.6,10.2C466.1,247.3,466.1,339.9,465.8,432.5z"/>
</svg>
